X: 25277
T: Man Of Aran, The
R: reel
M: 4/4
K: Bminor
|:FBfe dB B2|e3d cA A2|FBfe dB B2|cedc dB B2|
fBeB dB B2|e3d cA A2|(3Bcd ce dfeg|1 f3e dBBA:|2 f3e dBBc||
Adfd Adfd|cdec fcec|dAFD FAdA|cedc dBBc|
defd Adfd|cdec fcec|(3Bcd ce dfeg|1 f3e dBBc:|2 f3e dBBA||
df f2 df f2|ce e2 ce e2|df f2 df f2|c2ec dB B2|
dfaf dfaf|cege cege|dfeg fB B2|f3e fedc:|

